X: 24456
T: Lucky Can You Link Only
R: reel
M: 4/4
K: Aminor
|:B2AG Bde2|dBgB AGE2|G2GE GABd|BAGA BAA2:|
|:eaag ega2|gage degd|eaag ega2|gedB cAA2:|

